X: 17
T: Teig Maire's Daughter
R: air
%S: s:2 b:18(4+4)
B: "O'Neill's 1850 #17"
Q: "With expression"
O: F.O'Neill
Z: Transcribed by Norbert Paap, norbertp@bdu.uva.nl
N: Compacted via repeats and multiple endings [JC]
M: 4/4
L: 1/8
K: G
G |: B{cB}A(Bc) (de)(dB) |[1,3 c{dc}B(ce) (dB) G>A :|[2 cBG>G G3 (G/A/) :|[4 (cB) G(A/B/) c2 {dc}BA ||
|: G2{AG}FD ~(DC)B,C |[1,3 (Dc)BG ~(AF) D(E/F/) :|[2 (DE)FD (Gc)BA :|[4 (DEF).D G3 |]
